icons/svg/arrow-sort.svg

<svg width="24" height="24" viewBox="0 0 24 24" fill="none" xmlns="http://www.w3.org/2000/svg">
<path d="M12 9.86719L8.18566 6.05285C7.89277 5.75996 7.50888 5.61351 7.125 5.61351M2.25 9.86719L6.06434 6.05285C6.35723 5.75996 6.74112 5.61351 7.125 5.61351M7.125 19.0078V5.99219V5.61351" stroke="currentColor" stroke-width="1.5" stroke-linecap="round" stroke-linejoin="round"/>
<path d="M16.875 5.49001V18.5056V18.8843M21.75 14.6306L17.9357 18.445C17.6428 18.7379 17.2589 18.8843 16.875 18.8843M12 14.6306L15.8143 18.445C16.1072 18.7379 16.4911 18.8843 16.875 18.8843" stroke="currentColor" stroke-width="1.5" stroke-linecap="round" stroke-linejoin="round"/>
</svg>

<svg xmlns="http://www.w3.org/2000/svg" width="24" height="24" fill="none" viewBox="0 0 24 24"><path stroke="currentColor" stroke-linecap="round" stroke-linejoin="round" stroke-width="1.5" d="M12 9.867 8.186 6.053a1.5 1.5 0 0 0-1.061-.44M2.25 9.868l3.814-3.814c.293-.293.677-.44 1.061-.44m0 13.395V5.614m9.75-.124v13.394m4.875-4.253-3.814 3.814c-.293.293-.677.44-1.061.44M12 14.63l3.814 3.814c.293.293.677.44 1.061.44"/></svg>
